app/img/azamat/profile/iocn1.svg

<svg width="32" height="32" viewBox="0 0 32 32" fill="none" xmlns="http://www.w3.org/2000/svg">
<path d="M21.3334 5.33398H24C24.7073 5.33398 25.3856 5.61494 25.8857 6.11503C26.3858 6.61513 26.6667 7.29341 26.6667 8.00065V26.6673C26.6667 27.3746 26.3858 28.0528 25.8857 28.5529C25.3856 29.053 24.7073 29.334 24 29.334H8.00004C7.2928 29.334 6.61452 29.053 6.11442 28.5529C5.61433 28.0528 5.33337 27.3746 5.33337 26.6673V8.00065C5.33337 7.29341 5.61433 6.61513 6.11442 6.11503C6.61452 5.61494 7.2928 5.33398 8.00004 5.33398H10.6667" stroke="#25B072" stroke-width="2" stroke-linecap="round" stroke-linejoin="round"/>
<path d="M20 2.66602H12C11.2636 2.66602 10.6666 3.26297 10.6666 3.99935V6.66602C10.6666 7.4024 11.2636 7.99935 12 7.99935H20C20.7363 7.99935 21.3333 7.4024 21.3333 6.66602V3.99935C21.3333 3.26297 20.7363 2.66602 20 2.66602Z" stroke="#25B072" stroke-width="2" stroke-linecap="round" stroke-linejoin="round"/>
</svg>

<svg width="32" height="32" fill="none" xmlns="http://www.w3.org/2000/svg"><path d="M21.333 5.334H24a2.667 2.667 0 0 1 2.667 2.667v18.666A2.666 2.666 0 0 1 24 29.334H8a2.667 2.667 0 0 1-2.667-2.667V8.001A2.667 2.667 0 0 1 8 5.334h2.667" stroke="#25B072" stroke-width="2" stroke-linecap="round" stroke-linejoin="round"/><path d="M20 2.666h-8c-.736 0-1.333.597-1.333 1.333v2.667c0 .736.597 1.333 1.333 1.333h8c.736 0 1.333-.597 1.333-1.333V3.999c0-.736-.597-1.333-1.333-1.333Z" stroke="#25B072" stroke-width="2" stroke-linecap="round" stroke-linejoin="round"/></svg>
